source/images/companies/capsule.svg

<?xml version="1.0" encoding="UTF-8"?>
<svg width="150px" height="30px" viewBox="0 0 203 40" version="1.1" xmlns="http://www.w3.org/2000/svg" xmlns:xlink="http://www.w3.org/1999/xlink">
    <!-- Generator: Sketch 49.3 (51167) - http://www.bohemiancoding.com/sketch -->
    <title>capsule</title>
    <desc>Created with Sketch.</desc>
    <defs></defs>
    <g id="Page-1" stroke="none" stroke-width="1" fill="none" fill-rule="evenodd">
        <g id="capsule">
            <path d="M117.127,16.46 C117.127,14.84 116.054,13.872 114.255,13.872 L111.305,13.872 L111.305,18.998 L114.255,18.998 C116.053,18.998 117.127,18.05 117.127,16.461 L117.127,16.46 Z M91.54,14.99 L89.147,21.418 L93.935,21.418 L91.54,14.99 Z" id="Shape"></path>
            <path d="M19.783,20.217 L14.52,25.48 L14.52,14.52 L5.48,14.52 C2.45426045,14.5199998 0.00110428451,16.9722606 0,19.998 L0,20.003 C-1.71468692e-15,23.0295204 2.45347957,25.483 5.48,25.483 L14.517,25.483 L19.78,20.217 L19.783,20.217 Z" id="Shape" fill="#FFD300" fill-rule="nonzero"></path>
            <path d="M19.783,20.217 L25.481,14.519 L25.481,25.479 L34.521,25.479 C37.5475204,25.479 40.001,23.0255204 40.001,19.999 C40.001,16.9724796 37.5475204,14.519 34.521,14.519 L25.49,14.519 L19.79,20.209 L19.783,20.217 Z" id="Shape" fill="#99BFBC" fill-rule="nonzero"></path>
            <path d="M25.48,34.52 L25.48,14.518 L19.783,20.215 L14.519,25.479 L14.519,34.511 C14.519,37.5375204 16.9724796,39.991 19.999,39.991 C23.0255204,39.991 25.479,37.5375204 25.479,34.511 L25.48,34.52 Z" id="Shape" fill="#0F3C6C" fill-rule="nonzero"></path>
            <path d="M19.783,20.217 L25.481,14.519 L25.481,5.48 C25.481,2.45347957 23.0275204,1.85320928e-16 20.001,0 C16.9744796,-1.85320928e-16 14.521,2.45347957 14.521,5.48 L14.521,25.482 L19.791,20.219 L19.783,20.217 Z" id="Shape" fill="#EF4931" fill-rule="nonzero"></path>
            <path d="M151.796,10.608 L148.733,10.608 C148.584988,10.608 148.465,10.7279877 148.465,10.876 L148.465,22.766 C148.465,27.026 151.238,29.778 155.528,29.778 C159.834,29.778 162.618,27.026 162.618,22.768 L162.618,10.875 C162.618002,10.8035741 162.589492,10.7351024 162.538799,10.6847848 C162.488106,10.6344671 162.419424,10.606467 162.348,10.607 L159.26,10.607 C159.188922,10.607 159.120755,10.6352356 159.070495,10.6854954 C159.020236,10.7357551 158.992,10.803922 158.992,10.875 L158.992,22.585 C158.992,24.985 157.762,26.307 155.528,26.307 C153.328,26.307 152.064,24.951 152.064,22.587 L152.064,10.875 C152.064,10.7269877 151.944012,10.607 151.796,10.607 L151.796,10.608 Z M202.222,10.608 L190.95,10.608 C190.878576,10.607467 190.809894,10.6354671 190.759201,10.6857848 C190.708508,10.7361024 190.679998,10.8045741 190.68,10.876 L190.68,29.126 C190.68,29.273 190.8,29.393 190.95,29.393 L202.222,29.393 C202.37,29.393 202.49,29.273 202.49,29.125 L202.49,26.242 C202.49,26.0939877 202.370012,25.974 202.222,25.974 L194.305,25.974 L194.305,21.67 L201.45,21.67 C201.598,21.67 201.718,21.55 201.718,21.403 L201.718,18.598 C201.718,18.4499877 201.598012,18.33 201.45,18.33 L194.305,18.33 L194.305,14.028 L202.222,14.028 C202.37,14.028 202.49,13.908 202.49,13.76 L202.49,10.877 C202.49,10.727 202.37,10.607 202.222,10.607 L202.222,10.608 Z M134.19,26.462 C131.546,26.462 130.435,24.624 130.286,23.05 C130.278535,22.9706247 130.23599,22.898738 130.17,22.854 C130.104039,22.8093078 130.021799,22.7957839 129.945,22.817 L127.062,23.641 C126.935571,23.6776895 126.854033,23.800209 126.869,23.931 C127.179,26.841 129.561,29.781 134.181,29.781 C138.598,29.781 140.911,26.861 140.911,23.981 C140.911,21.177 138.981,19.111 135.754,18.471 L133.134,17.931 C131.891,17.661 131.207,16.921 131.207,15.851 C131.207,14.528 132.469,13.493 134.079,13.493 C136.221,13.493 137.202,14.883 137.392,16.073 C137.404753,16.1496963 137.44995,16.2171722 137.516021,16.2581552 C137.582092,16.2991383 137.662623,16.3096502 137.737,16.287 L140.517,15.413 C140.647,15.373 140.727,15.237 140.697,15.103 C140.467,13.958 139.305,10.228 134.054,10.228 C130.487,10.228 127.584,12.854 127.584,16.081 C127.584,18.833 129.396,20.846 132.43,21.464 L135.003,22.004 C136.401,22.304 137.236,23.13 137.236,24.214 C137.236,25.604 136.068,26.468 134.186,26.468 L134.19,26.462 Z M174.747,10.608 L171.657,10.608 C171.509378,10.6085508 171.389999,10.7283773 171.39,10.876 L171.39,29.126 C171.39,29.273 171.51,29.393 171.658,29.393 L183.112,29.393 C183.26,29.393 183.38,29.273 183.38,29.125 L183.38,26.19 C183.38,26.0419877 183.260012,25.922 183.112,25.922 L175.015,25.922 L175.015,10.876 C175.015,10.7279877 174.895012,10.608 174.747,10.608 Z M68.567,13.666 C71.183,13.666 73.02,15.046 73.607,17.451 C73.625458,17.523288 73.6730048,17.5847163 73.7383569,17.6207073 C73.8037089,17.6566983 73.8810406,17.6640436 73.952,17.641 L76.862,16.671 C76.9943135,16.6257946 77.069639,16.4864641 77.035,16.351 C75.87,11.836 71.895,10.228 68.565,10.228 C66.088,10.228 63.759,11.155 62.009,12.836 C60.109,14.66 59.101,17.144 59.101,20.022 C59.101,26.432 63.871,29.788 68.583,29.788 C73.643,29.788 76.335,26.422 77.103,23.538 C77.1385391,23.4010345 77.0614735,23.2600394 76.927,23.216 L74.097,22.289 C74.0280456,22.2672124 73.9532332,22.273996 73.8893224,22.3078312 C73.8254116,22.3416663 73.7777446,22.3997247 73.757,22.469 C73.487,23.365 72.317,26.292 68.581,26.292 C65.796,26.292 62.801,24.328 62.801,20.022 C62.801,15.662 65.785,13.674 68.557,13.674 L68.567,13.666 Z M85.98,29.392 C86.093,29.392 86.194,29.322 86.232,29.217 L87.866,24.811 L95.216,24.811 L96.876,29.221 C96.9123189,29.3282493 97.0127688,29.4005733 97.126,29.401 L100.503,29.401 C100.601163,29.4012249 100.691594,29.347765 100.738716,29.261652 C100.785838,29.1755391 100.782111,29.0705542 100.729,28.988 L93.639,10.788 C93.5992773,10.6844659 93.4998927,10.6160894 93.389,10.616 L89.809,10.616 C89.698779,10.6163263 89.5998223,10.6836168 89.559,10.786 L82.459,29.033 C82.4271591,29.1157051 82.4379323,29.2087702 82.4878258,29.2820138 C82.5377192,29.3552574 82.6203797,29.3993529 82.709,29.4 L85.979,29.4 L85.98,29.392 Z M91.54,14.99 L93.935,21.418 L89.148,21.418 L91.541,14.99 L91.54,14.99 Z M111.038,29.392 C111.186,29.392 111.306,29.272 111.306,29.124 L111.306,22.264 L114.718,22.264 C118.301,22.264 120.803,19.867 120.803,16.434 C120.803,13.004 118.301,10.607 114.718,10.607 L107.948,10.607 C107.800378,10.6075508 107.680999,10.7273773 107.681,10.875 L107.681,29.125 C107.681,29.272 107.801,29.392 107.951,29.392 L111.041,29.392 L111.038,29.392 Z M111.306,13.872 L114.256,13.872 C116.054,13.872 117.126,14.84 117.126,16.462 C117.126,18.05 116.054,18.998 114.256,18.998 L111.306,18.998 L111.306,13.872 Z" id="Shape" fill="#0F3C6C" fill-rule="nonzero"></path>
        </g>
    </g>
</svg>

<svg xmlns="http://www.w3.org/2000/svg" baseProfile="tiny" viewBox="0 0 202.49 40" alt="Capsule Logo" class="nav__logo block"><path xmlns="http://www.w3.org/2000/svg" fill="none" d="M117.127 16.46c0-1.62-1.073-2.588-2.872-2.588h-2.95v5.126h2.95c1.798 0 2.872-.948 2.872-2.537zM91.54 14.99l-2.393 6.428h4.788z"></path><path xmlns="http://www.w3.org/2000/svg" fill="#FFD300" d="M19.783 20.217L14.52 25.48V14.52H5.48A5.48 5.48 0 0 0 0 19.998v.005a5.48 5.48 0 0 0 5.48 5.48h9.037l5.263-5.266z"></path><path xmlns="http://www.w3.org/2000/svg" fill="#99BFBC" d="M19.783 20.217l5.698-5.698v10.96h9.04a5.48 5.48 0 1 0 0-10.96H25.49l-5.7 5.69z"></path><path xmlns="http://www.w3.org/2000/svg" fill="#0F3C6C" d="M25.48 34.52V14.518l-5.697 5.697-5.264 5.264v9.032a5.48 5.48 0 1 0 10.96 0z"></path><path xmlns="http://www.w3.org/2000/svg" fill="#EF4931" d="M19.783 20.217l5.698-5.698V5.48a5.48 5.48 0 0 0-10.96 0v20.002l5.27-5.263z"></path><path xmlns="http://www.w3.org/2000/svg" fill="#0F3C6C" d="M151.796 10.608h-3.063a.268.268 0 0 0-.268.268v11.89c0 4.26 2.773 7.012 7.063 7.012 4.306 0 7.09-2.752 7.09-7.01V10.875a.268.268 0 0 0-.27-.268h-3.088a.268.268 0 0 0-.268.268v11.71c0 2.4-1.23 3.722-3.464 3.722-2.2 0-3.464-1.356-3.464-3.72V10.875a.268.268 0 0 0-.268-.268zm50.426 0H190.95a.268.268 0 0 0-.27.268v18.25c0 .147.12.267.27.267h11.272c.148 0 .268-.12.268-.268v-2.883a.268.268 0 0 0-.268-.268h-7.917V21.67h7.145c.148 0 .268-.12.268-.267v-2.805a.268.268 0 0 0-.268-.268h-7.145v-4.302h7.917c.148 0 .268-.12.268-.268v-2.883c0-.15-.12-.27-.268-.27zM134.19 26.462c-2.644 0-3.755-1.838-3.904-3.412a.267.267 0 0 0-.116-.196.272.272 0 0 0-.225-.037l-2.883.824a.27.27 0 0 0-.193.29c.31 2.91 2.692 5.85 7.312 5.85 4.417 0 6.73-2.92 6.73-5.8 0-2.804-1.93-4.87-5.157-5.51l-2.62-.54c-1.243-.27-1.927-1.01-1.927-2.08 0-1.323 1.262-2.358 2.872-2.358 2.142 0 3.123 1.39 3.313 2.58a.27.27 0 0 0 .345.214l2.78-.874c.13-.04.21-.176.18-.31-.23-1.145-1.392-4.875-6.643-4.875-3.567 0-6.47 2.626-6.47 5.853 0 2.752 1.812 4.765 4.846 5.383l2.573.54c1.398.3 2.233 1.126 2.233 2.21 0 1.39-1.168 2.254-3.05 2.254zm40.557-15.854h-3.09a.268.268 0 0 0-.267.268v18.25c0 .147.12.267.268.267h11.454c.148 0 .268-.12.268-.268V26.19a.268.268 0 0 0-.268-.268h-8.097V10.876a.268.268 0 0 0-.268-.268zm-106.18 3.058c2.616 0 4.453 1.38 5.04 3.785a.27.27 0 0 0 .345.19l2.91-.97a.268.268 0 0 0 .173-.32c-1.165-4.515-5.14-6.123-8.47-6.123-2.477 0-4.806.927-6.556 2.608-1.9 1.824-2.908 4.308-2.908 7.186 0 6.41 4.77 9.766 9.482 9.766 5.06 0 7.752-3.366 8.52-6.25a.268.268 0 0 0-.176-.322l-2.83-.927a.27.27 0 0 0-.34.18c-.27.896-1.44 3.823-5.176 3.823-2.785 0-5.78-1.964-5.78-6.27 0-4.36 2.984-6.348 5.756-6.348zM85.98 29.392c.113 0 .214-.07.252-.175l1.634-4.406h7.35l1.66 4.41a.265.265 0 0 0 .25.18h3.377a.268.268 0 0 0 .226-.413l-7.09-18.2a.268.268 0 0 0-.25-.172h-3.58a.27.27 0 0 0-.25.17l-7.1 18.247a.27.27 0 0 0 .25.367h3.27zm5.56-14.402l2.395 6.428h-4.787l2.393-6.428zm19.498 14.402c.148 0 .268-.12.268-.268v-6.86h3.412c3.583 0 6.085-2.397 6.085-5.83 0-3.43-2.502-5.827-6.085-5.827h-6.77a.268.268 0 0 0-.267.268v18.25c0 .147.12.267.27.267h3.09zm.268-15.52h2.95c1.798 0 2.87.968 2.87 2.59 0 1.588-1.072 2.536-2.87 2.536h-2.95v-5.126z"></path></svg>
